status/symbolic/computer-fail-symbolic.svg

<?xml version="1.0" encoding="UTF-8" standalone="no"?>
<svg
   height="16"
   width="16"
   version="1.1"
   id="svg1"
   sodipodi:docname="computer-fail-symbolic.svg"
   inkscape:version="1.2.2 (b0a8486541, 2022-12-01)"
   xmlns:inkscape="http://www.inkscape.org/namespaces/inkscape"
   xmlns:sodipodi="http://sodipodi.sourceforge.net/DTD/sodipodi-0.dtd"
   xmlns="http://www.w3.org/2000/svg"
   xmlns:svg="http://www.w3.org/2000/svg">
  <sodipodi:namedview
     id="namedview9896"
     pagecolor="#ffffff"
     bordercolor="#000000"
     borderopacity="0.25"
     inkscape:showpageshadow="2"
     inkscape:pageopacity="0.0"
     inkscape:pagecheckerboard="0"
     inkscape:deskcolor="#d1d1d1"
     showgrid="false"
     inkscape:zoom="54.736317"
     inkscape:cx="6.7140067"
     inkscape:cy="9.8654793"
     inkscape:window-width="1390"
     inkscape:window-height="1053"
     inkscape:window-x="126"
     inkscape:window-y="663"
     inkscape:window-maximized="0"
     inkscape:current-layer="svg1" />
  <defs
     id="defs1" />
  <path
     d="M 1,1 C 0.446,1 0,1.446 0,2 v 10 c 0,0.554 0.446,1 1,1 h 5 v 1 c 0,0 0,1 -1,1 v 1 h 6 v -1 c -1,0 -1,-1 -1,-1 v -1 h 5 c 0.554,0 1,-0.446 1,-1 V 2 C 16,1.446 15.554,1 15,1 Z m 0.5,1 h 13 c 0,0 0.5,0 0.5,0.5 v 9 C 15,12 14.5,12 14.5,12 H 1.5 C 1,12 1,11.5 1,11.5 v -9 C 1,2.5 1,2 1.5,2 Z M 4,4 V 5 H 5 V 4 Z M 5,5 V 6 H 6 V 5 Z M 6,5 H 7 V 4 H 6 Z M 6,6 V 7 H 7 V 6 Z M 5,6 H 4 V 7 H 5 Z M 9,4 v 1 h 1 V 4 Z m 1,1 v 1 h 1 V 5 Z m 1,0 h 1 V 4 h -1 z m 0,1 v 1 h 1 V 6 Z M 10,6 H 9 v 1 h 1 z M 5,8 v 1 h 6 V 8 Z m 6,1 v 1 h 1 V 9 Z M 5,9 H 4 v 1 h 1 z"
     fill="#666"
     id="path1"
     style="fill:#555761"
     sodipodi:nodetypes="ssssccccccccsssssscsscsccsccccccccccccccccccccccccccccccccccccccccccccccccccccccccccccccccc" />
</svg>

<svg
        xmlns='http://www.w3.org/2000/svg'
        xmlns:svg='http://www.w3.org/2000/svg'
        id='svg1'
        width='16'
        height='16'>
  <path
          id='path1'
          fill='url(#gpa:foreground) #555761'
          fill-opacity='1'
          fill-rule='nonzero'
          d='M 1 1 C 0.446 1, 0 1.446, 0 2 L 0 12 C 0 12.554, 0.446 13, 1 13 L 6 13 L 6 14 C 6 14, 6 15, 5 15 L 5 16 L 11 16 L 11 15 C 10 15, 10 14, 10 14 L 10 13 L 15 13 C 15.554 13, 16 12.554, 16 12 L 16 2 C 16 1.446, 15.554 1, 15 1 Z M 1.5 2 L 14.5 2 C 14.5 2, 15 2, 15 2.5 L 15 11.5 C 15 12, 14.5 12, 14.5 12 L 1.5 12 C 1 12, 1 11.5, 1 11.5 L 1 2.5 C 1 2.5, 1 2, 1.5 2 Z M 4 4 L 4 5 L 5 5 L 5 4 Z M 5 5 L 5 6 L 6 6 L 6 5 Z M 6 5 L 7 5 L 7 4 L 6 4 Z M 6 6 L 6 7 L 7 7 L 7 6 Z M 5 6 L 4 6 L 4 7 L 5 7 Z M 9 4 L 9 5 L 10 5 L 10 4 Z M 10 5 L 10 6 L 11 6 L 11 5 Z M 11 5 L 12 5 L 12 4 L 11 4 Z M 11 6 L 11 7 L 12 7 L 12 6 Z M 10 6 L 9 6 L 9 7 L 10 7 Z M 5 8 L 5 9 L 11 9 L 11 8 Z M 11 9 L 11 10 L 12 10 L 12 9 Z M 5 9 L 4 9 L 4 10 L 5 10 Z'
          class="foreground">
  </path>
</svg>
